public/assets/images/linkedin.svg

<?xml version="1.0" encoding="UTF-8" standalone="no"?>
<svg width="244px" height="243px" viewBox="0 0 244 243" version="1.1" xmlns="http://www.w3.org/2000/svg" xmlns:xlink="http://www.w3.org/1999/xlink">
    <!-- Generator: Sketch 39.1 (31720) - http://www.bohemiancoding.com/sketch -->
    <title>linkedin</title>
    <desc>Created with Sketch.</desc>
    <defs></defs>
    <g id="Page-1" stroke="none" stroke-width="1" fill="none" fill-rule="evenodd">
        <g id="Artboard" transform="translate(-875.000000, -295.000000)" fill="#FFFFFF">
            <path d="M1082.5675,502.01 L1046.5775,502.01 L1046.5775,445.636 C1046.5775,432.184 1046.3175,414.892 1027.8575,414.892 C1009.1075,414.892 1006.2475,429.539 1006.2475,444.66 L1006.2475,502.01 L970.217499,502.01 L970.217499,386.081 L1004.7875,386.081 L1004.7875,401.914 L1005.2775,401.914 C1010.0875,392.803 1021.8475,383.19 1039.3775,383.19 C1075.8375,383.19 1082.5675,407.195 1082.5675,438.422 L1082.5675,502.01 L1082.5675,502.01 Z M929.597499,370.23 C918.057499,370.23 908.717499,360.868 908.717499,349.332 C908.717499,337.808 918.057499,328.446 929.597499,328.446 C941.117499,328.446 950.487499,337.808 950.487499,349.332 C950.487499,360.868 941.117499,370.23 929.597499,370.23 L929.597499,370.23 Z M911.577499,502.01 L947.627499,502.01 L947.627499,386.081 L911.577499,386.081 L911.577499,502.01 Z M1100.5075,295 L893.507499,295 C883.607499,295 875.577499,302.847 875.577499,312.503 L875.577499,520.4 C875.577499,530.074 883.607499,537.929 893.507499,537.929 L1100.5075,537.929 C1110.4175,537.929 1118.5075,530.074 1118.5075,520.4 L1118.5075,312.503 C1118.5075,302.847 1110.4175,295 1100.5075,295 L1100.5075,295 Z" id="linkedin"></path>
        </g>
    </g>
</svg>

<svg height="243" viewBox="0 0 244 243" width="244" xmlns="http://www.w3.org/2000/svg"><path d="m1082.5675 502.01h-35.99v-56.374c0-13.452-.26-30.744-18.72-30.744-18.75 0-21.61 14.647-21.61 29.768v57.35h-36.030001v-115.929h34.570001v15.833h.49c4.81-9.111 16.57-18.724 34.1-18.724 36.46 0 43.19 24.005 43.19 55.232zm-152.970001-131.78c-11.54 0-20.88-9.362-20.88-20.898 0-11.524 9.34-20.886 20.88-20.886 11.52 0 20.89 9.362 20.89 20.886 0 11.536-9.37 20.898-20.89 20.898zm-18.02 131.78h36.05v-115.929h-36.05zm188.930001-207.01h-207.000001c-9.9 0-17.93 7.847-17.93 17.503v207.897c0 9.674 8.03 17.529 17.93 17.529h207.000001c9.91 0 18-7.855 18-17.529v-207.897c0-9.656-8.09-17.503-18-17.503z" fill="#fff" fill-rule="evenodd" transform="translate(-875 -295)"/></svg>
